@extra/phlat-icons/symbolic/package-installed-locked.svg

<svg xmlns="http://www.w3.org/2000/svg" version="1.1" viewBox="0 0 16 16"><g font-weight="400" font-family="Sans" fill="#f1f2f2"><path style="text-decoration-line:none;text-transform:none;text-indent:0" d="m3.4688 1a2.468 2.468 0 0 0 -2.4708 2.4688l0.00005 9.0622a2.468 2.468 0 0 0 2.4726 2.469h4.5294c0-0.174 0.029-0.339 0.0703-0.5-0.0429-0.159-0.0703-0.326-0.0703-0.5h-4.5293a1.443 1.443 0 0 1 -1.4707 -1.469v-9.0603c0-0.8323 0.6367-1.4697 1.4688-1.4707h0.0019 9.0603c0.687 0 1.234 0.4375 1.407 1.0566l-5.438 5.3184-1.9375-1.9375-2.125 2.125 3 2.9995 0.5625 0.563v-2.125c0-1.108 0.892-2 2-2h2.525 0.506l0.969-0.9961v0.9961h1v-4.5293a2.468 2.468 0 0 0 -2.471 -2.4707h-9.0602z"/></g><path style="color:#f1f2f2" d="m11.5 9c-0.822 0-1.5 0.626-1.5 1.385v1.685h-0.5c-0.277 0-0.5 0.205-0.5 0.461v2.469h6v-2.469c0-0.256-0.223-0.461-0.5-0.461h-0.5v-1.685c0-0.76-0.678-1.385-1.5-1.385zm0 0.923h1c0.286 0 0.5 0.198 0.5 0.462v1.685h-2v-1.685c0-0.264 0.214-0.462 0.5-0.462z" overflow="visible" fill="#f60"/></svg>

<svg xmlns="http://www.w3.org/2000/svg" viewBox="0 0 16 16">
    <path style="text-decoration-line:none;text-transform:none;text-indent:0" d="M3.469 1A2.468 2.468 0 0 0 .998 3.469v9.062A2.468 2.468 0 0 0 3.471 15H8c0-.174.029-.339.07-.5A1.915 1.915 0 0 1 8 14H3.47A1.443 1.443 0 0 1 2 12.531v-9.06C2 2.638 2.637 2 3.469 2h9.061c.687 0 1.234.438 1.407 1.057L8.5 8.375 6.563 6.437 4.438 8.563l3 3 .562.563V10c0-1.108.892-2 2-2h3.031l.97-.996V8h1V3.47A2.468 2.468 0 0 0 12.528 1H3.47z" font-weight="400" font-family="Sans" fill="#f1f2f2"/>
    <path d="M11.5 9c-.822 0-1.5.626-1.5 1.385v1.685h-.5c-.277 0-.5.205-.5.461V15h6v-2.469c0-.256-.223-.461-.5-.461H14v-1.685C14 9.625 13.322 9 12.5 9zm0 .923h1c.286 0 .5.198.5.462v1.685h-2v-1.685c0-.264.214-.462.5-.462z" overflow="visible" fill="#f60" color="#f1f2f2"/>
</svg>
